public/static/icons/editor/subscript.svg

<svg height="24" viewBox="0 0 24 24" width="24" xmlns="http://www.w3.org/2000/svg"><path d="m7.49480769 5.65136614 2.61126571-5.10664355c.1709653-.33434322.5148306-.54472259.8903496-.54472259h2.3226828c.5522847 0 1 .44771525 1 1 0 .16667431-.0416607.33070525-.1211943.4771796l-3.813296 7.0228204 3.813296 7.0228204c.2635391.485351.0837249 1.0924464-.4016261 1.3559854-.1464744.0795336-.3105053.1211942-.4771796.1211942h-2.3214297c-.3761748 0-.7205248-.2111074-.8911779-.546346l-2.6064982-5.1203201-2.60649815 5.1203201c-.17065319.3352386-.51500312.546346-.89117791.546346h-2.32142969c-.55228475 0-1-.4477153-1-1 0-.1666743.04166062-.3307053.1211942-.4771796l3.81329604-7.0228204-3.81329604-7.0228204c-.26353902-.48535103-.08372485-1.09244638.40162619-1.35598539.14647435-.07953359.3105053-.12119421.47717961-.12119421h2.3216806c.37604352 0 .72029649.21096154.89101237.54602098zm15.40855361 18.34863386c.3697479 0 .644958-.0756303.8256303-.2268908s.2710084-.3865546.2710084-.7058823c0-.3109244-.0903361-.539916-.2710084-.6869748s-.4558824-.2205882-.8256303-.2205882h-2.5336134l1.789916-1.8277311c.4957983-.5210084.8466386-.9936975 1.052521-1.4180673.2058823-.4243697.3088235-.8928571.3088235-1.4054621 0-.4957984-.1281513-.934874-.3844538-1.3172269-.2563025-.382353-.6197479-.6764706-1.0903361-.882353-.4705882-.2058823-1.0168067-.3088235-1.6386555-.3088235-.4789916 0-.9642857.0756303-1.4558823.2268908-.4915967.1512605-.934874.3613445-1.329832.6302521-.1512605.1008403-.2542016.210084-.3088235.327731-.0546218.1176471-.0819328.2689076-.0819328.4537816 0 .2605042.0714286.4852941.2142858.6743697.1428571.1890756.3193277.2836135.5294117.2836135.0840336 0 .1638656-.0126051.2394958-.0378152.0756303-.0252101.1617647-.065126.2584034-.1197479.0966386-.0546218.1617647-.0903361.1953781-.1071428l.2521009-.1260504c.2689075-.1344538.5063025-.237395.7121848-.3088236.2058824-.0714285.4306723-.1071428.6743698-.1071428.302521 0 .5357143.0756302.6995798.2268907.1638656.1512605.2457983.3697479.2457983.6554622 0 .487395-.2773109 1.0210084-.8319327 1.6008403l-2.6722689 2.7857143c-.2857143.2941177-.4285715.6218488-.4285715.9831933 0 .2773109.0882353.5063025.2647059.6869748s.4159664.2710084.7184874.2710084z" fill-rule="evenodd"/></svg>

<svg xmlns="http://www.w3.org/2000/svg" width="24" height="24" viewBox="0 0 24 24">
  <path fill-rule="evenodd" d="M7.49480769 5.65136614L10.1060734.544722589C10.2770387.210379371 10.620904 5.13992886e-16 10.996423 0L13.3191058 0C13.8713905-2.52579779e-15 14.3191058.44771525 14.3191058 1 14.3191058 1.16667431 14.2774451 1.33070525 14.1979115 1.4771796L10.3846155 8.5 10.3846155 8.5 14.1979115 15.5228204C14.4614506 16.0081714 14.2816364 16.6152668 13.7962854 16.8788058 13.649811 16.9583394 13.4857801 17 13.3191058 17L10.9976761 17C10.6215013 17 10.2771513 16.7888926 10.1064982 16.453654L7.5 11.3333339 7.5 11.3333339 4.89350185 16.453654C4.72284866 16.7888926 4.37849873 17 4.00232394 17L1.68089425 17C1.1286095 17 .680894246 16.5522847.680894246 16 .680894246 15.8333257.72255487 15.6692947.802088451 15.5228204L4.61538449 8.5 4.61538449 8.5.802088451 1.4771796C.538549433.991828566.718363603.384733223 1.20371464.121194205 1.35018899.0416606238 1.51421994 2.52662179e-16 1.68089425 0L4.00257485 0C4.37861837-4.02144982e-16 4.72287134.210961542 4.89358722.546020975L7.49480769 5.65136614 7.49480769 5.65136614zM22.9033613 24C23.2731092 24 23.5483193 23.9243697 23.7289916 23.7731092 23.9096639 23.6218487 24 23.3865546 24 23.0672269 24 22.7563025 23.9096639 22.5273109 23.7289916 22.3802521 23.5483193 22.2331933 23.2731092 22.1596639 22.9033613 22.1596639L22.9033613 22.1596639 20.3697479 22.1596639 22.1596639 20.3319328C22.6554622 19.8109244 23.0063025 19.3382353 23.2121849 18.9138655 23.4180672 18.4894958 23.5210084 18.0210084 23.5210084 17.5084034 23.5210084 17.012605 23.3928571 16.5735294 23.1365546 16.1911765 22.8802521 15.8088235 22.5168067 15.5147059 22.0462185 15.3088235 21.5756303 15.1029412 21.0294118 15 20.407563 15 19.9285714 15 19.4432773 15.0756303 18.9516807 15.2268908 18.460084 15.3781513 18.0168067 15.5882353 17.6218487 15.8571429 17.4705882 15.9579832 17.3676471 16.0672269 17.3130252 16.1848739 17.2584034 16.302521 17.2310924 16.4537815 17.2310924 16.6386555 17.2310924 16.8991597 17.302521 17.1239496 17.4453782 17.3130252 17.5882353 17.5021008 17.7647059 17.5966387 17.9747899 17.5966387 18.0588235 17.5966387 18.1386555 17.5840336 18.2142857 17.5588235 18.289916 17.5336134 18.3760504 17.4936975 18.4726891 17.4390756 18.5693277 17.3844538 18.6344538 17.3487395 18.6680672 17.3319328L18.6680672 17.3319328 18.9201681 17.2058824C19.1890756 17.0714286 19.4264706 16.9684874 19.6323529 16.8970588 19.8382353 16.8256303 20.0630252 16.789916 20.3067227 16.789916 20.6092437 16.789916 20.842437 16.8655462 21.0063025 17.0168067 21.1701681 17.1680672 21.2521008 17.3865546 21.2521008 17.6722689 21.2521008 18.1596639 20.9747899 18.6932773 20.4201681 19.2731092L20.4201681 19.2731092 17.7478992 22.0588235C17.4621849 22.3529412 17.3193277 22.6806723 17.3193277 23.0420168 17.3193277 23.3193277 17.407563 23.5483193 17.5840336 23.7289916 17.7605042 23.9096639 18 24 18.302521 24L18.302521 24 22.9033613 24z"/>
</svg>
